public/style/workarea/images/icons/exe-move-icon-green.svg

<svg fill="none" height="25" viewBox="0 0 25 25" width="25" xmlns="http://www.w3.org/2000/svg"><g stroke="#0ba1a1" stroke-linecap="round" stroke-linejoin="round" stroke-width="2"><path d="m20.9854 9.56873h-9c-1.1046 0-2.00005.89547-2.00005 1.99997v9c0 1.1046.89545 2 2.00005 2h9c1.1045 0 2-.8954 2-2v-9c0-1.1045-.8955-1.99997-2-1.99997z"/><path d="m5.98535 15.5687h-1c-.53043 0-1.03914-.2107-1.41421-.5858-.37507-.375-.58579-.8837-.58579-1.4142v-.7536m13.00005-7.24637v-1c0-.53044-.2108-1.03915-.5858-1.41422-.3751-.37507-.8838-.58578-1.4142-.58578h-.7978m-7.43748 0h-.76477c-.53043 0-1.03914.21071-1.41421.58578s-.58579.88378-.58579 1.41422v.74639m5.76477-2.74639h1.46878m-7.23355 5.77764v1.4375"/></g></svg>

<svg width="25" height="25" viewBox="0 0 25 25" fill="none" xmlns="http://www.w3.org/2000/svg">
<path d="M20.9854 9.56873H11.9854C10.8808 9.56873 9.98535 10.4642 9.98535 11.5687V20.5687C9.98535 21.6733 10.8808 22.5687 11.9854 22.5687H20.9854C22.0899 22.5687 22.9854 21.6733 22.9854 20.5687V11.5687C22.9854 10.4642 22.0899 9.56873 20.9854 9.56873Z" stroke="#0BA1A1" stroke-width="2" stroke-linecap="round" stroke-linejoin="round"/>
<path d="M5.98535 15.5687H4.98535C4.45492 15.5687 3.94621 15.358 3.57114 14.9829C3.19607 14.6079 2.98535 14.0992 2.98535 13.5687V12.8151M15.9854 5.56873V4.56873C15.9854 4.03829 15.7746 3.52958 15.3996 3.15451C15.0245 2.77944 14.5158 2.56873 13.9854 2.56873H13.1876M5.75012 2.56873H4.98535C4.45492 2.56873 3.94621 2.77944 3.57114 3.15451C3.19607 3.52958 2.98535 4.03829 2.98535 4.56873V5.31512M8.75012 2.56873H10.2189M2.98535 8.34637V9.78387" stroke="#0BA1A1" stroke-width="2" stroke-linecap="round" stroke-linejoin="round"/>
</svg>
